assets/img/icons/home.svg

<svg width="32" height="30" viewBox="0 0 32 30" fill="none" xmlns="http://www.w3.org/2000/svg">
<path d="M2.66667 9.33333V8C2.66667 3.58133 6.248 0 10.6667 0H21.3333C25.752 0 29.3333 3.58133 29.3333 8V9.33333C26.388 9.33333 24 11.7213 24 14.6667V18.6667H8V14.6667C8 11.7213 5.612 9.33333 2.66667 9.33333ZM28.8853 12.036C27.5747 12.2493 26.6667 13.48 26.6667 14.8093V20C26.6667 20.736 26.0693 21.3333 25.3333 21.3333H6.66667C5.93067 21.3333 5.33333 20.736 5.33333 20V14.8093C5.33333 13.4813 4.42533 12.2493 3.11467 12.036C1.444 11.764 0 13.0467 0 14.6667V20C0 22.1813 1.048 24.1173 2.66667 25.3333V28C2.66667 28.736 3.264 29.3333 4 29.3333C4.736 29.3333 5.33333 28.736 5.33333 28V26.5333C5.764 26.6213 6.21067 26.6667 6.66667 26.6667H25.3333C25.7893 26.6667 26.236 26.6213 26.6667 26.5333V28C26.6667 28.736 27.264 29.3333 28 29.3333C28.736 29.3333 29.3333 28.736 29.3333 28V25.3333C30.952 24.1173 32 22.1813 32 20V14.6667C32 13.0467 30.556 11.7653 28.8853 12.036Z" fill="white"/>
</svg>

<svg width="32" height="30" fill="none" xmlns="http://www.w3.org/2000/svg"><path d="M2.667 9.333V8a8 8 0 0 1 8-8h10.666a8 8 0 0 1 8 8v1.333A5.334 5.334 0 0 0 24 14.667v4H8v-4a5.334 5.334 0 0 0-5.333-5.334Zm26.218 2.703c-1.31.213-2.218 1.444-2.218 2.773V20c0 .736-.598 1.333-1.334 1.333H6.667A1.334 1.334 0 0 1 5.333 20v-5.19c0-1.329-.908-2.56-2.218-2.774A2.669 2.669 0 0 0 0 14.666V20a6.657 6.657 0 0 0 2.667 5.333V28a1.334 1.334 0 0 0 2.666 0v-1.467a6.67 6.67 0 0 0 1.334.134h18.666a6.67 6.67 0 0 0 1.334-.134V28a1.334 1.334 0 0 0 2.666 0v-2.667A6.656 6.656 0 0 0 32 20v-5.333a2.67 2.67 0 0 0-3.115-2.631Z" fill="#fff"/></svg>
